src/img/info-circle.svg

<svg fill="none" height="16" viewBox="0 0 16 16" width="16" xmlns="http://www.w3.org/2000/svg"><path clip-rule="evenodd" d="m7.99996 1.54163c-3.56659 0-6.45833 2.89278-6.45833 6.45833 0 3.56764 2.89174 6.45834 6.45833 6.45834 3.56654 0 6.45834-2.8907 6.45834-6.45834 0-3.56555-2.8918-6.45833-6.45834-6.45833zm0 2.86458c.60406 0 1.09375.48969 1.09375 1.09375s-.48969 1.09375-1.09375 1.09375-1.09375-.48969-1.09375-1.09375.48969-1.09375 1.09375-1.09375zm1.14583 6.92709c.17258 0 .3125-.1399.3125-.3125v-.625c0-.1726-.13992-.3125-.3125-.3125h-.3125v-2.60417c0-.17258-.13992-.3125-.3125-.3125h-1.66666c-.17258 0-.3125.13992-.3125.3125v.625c0 .17257.13992.3125.3125.3125h.3125v1.66667h-.3125c-.17258 0-.3125.1399-.3125.3125v.625c0 .1726.13992.3125.3125.3125z" fill="#88898b" fill-rule="evenodd"/></svg>

<svg width="16" height="16" viewBox="0 0 16 16" fill="none" 
  xmlns="http://www.w3.org/2000/svg">
  <path fill-rule="evenodd" clip-rule="evenodd" d="M7.99996 1.54163C4.43337 1.54163 1.54163 4.43441 1.54163 7.99996C1.54163 11.5676 4.43337 14.4583 7.99996 14.4583C11.5665 14.4583 14.4583 11.5676 14.4583 7.99996C14.4583 4.43441 11.5665 1.54163 7.99996 1.54163ZM7.99996 4.40621C8.60402 4.40621 9.09371 4.8959 9.09371 5.49996C9.09371 6.10402 8.60402 6.59371 7.99996 6.59371C7.3959 6.59371 6.90621 6.10402 6.90621 5.49996C6.90621 4.8959 7.3959 4.40621 7.99996 4.40621ZM9.14579 11.3333C9.31837 11.3333 9.45829 11.1934 9.45829 11.0208V10.3958C9.45829 10.2232 9.31837 10.0833 9.14579 10.0833H8.83329V7.47913C8.83329 7.30655 8.69337 7.16663 8.52079 7.16663H6.85413C6.68155 7.16663 6.54163 7.30655 6.54163 7.47913V8.10413C6.54163 8.2767 6.68155 8.41663 6.85413 8.41663H7.16663V10.0833H6.85413C6.68155 10.0833 6.54163 10.2232 6.54163 10.3958V11.0208C6.54163 11.1934 6.68155 11.3333 6.85413 11.3333H9.14579Z" fill="#88898B"/>
</svg>
